X:1
T:Title
%%score ( 1 2 ) { ( 3 5 ) | 4 }
L:1/8
Q:1/4=100
M:4/4
K:D
V:1 treble nm="Grand Piano, Piano"
V:2 treble 
V:3 bass nm="Grand Piano, Piano"
V:5 bass 
V:4 bass 
V:1
 [A,D]4 [A,E]2 [DF]2 | A4 B4 | [DA]8 | [FA]4 [FB]2 [EA]2 | [Dd]2 [Ec]2 [DB]4 |[M:2/4] [CA]4 | %6
w: 1.~Come~ down,~ O~|Love~ di|vine,~|seek~ thou~ this~|soul~ * of~|mine,~|
 [DA]4 |[M:4/4] [DB]2 [CA]2 [DG]2 [DF]2 | z4 z2 .F2 |[M:6/4] .E6 z6 |[M:4/4] [Fd]4 [Fc]2 [DB]2 | %11
w: and~|vi sit~ it~ with~|dor~|glo|O~ Com for|
 [FA]4 B2- [DB]2 | [CA]8 | [E=c]4 [DB]2 [DA]2 | G4 z4 |[M:2/4] [A,E]4 | [CE]4 |[M:4/4] z4 z2 G2 | %18
w: ter,~ draw~ *|near,~|with in~ my~|heart~|pear,~|and~|thy~|
 z4 z2 .F2 |[M:6/4] .E6 z6 |] %20
w: bes|to|
V:2
 x8 | D2 C2 B,2 C2 | x8 | x8 | x8 |[M:2/4] x4 | x4 |[M:4/4] x8 | [B,E]2 D2 [DE]2 D-[DG] | %9
w: ||||||||* own~ * * *|
[M:6/4] D2 C2 D2- D6 |[M:4/4] x8 | z4 E2 z2 | x8 | x8 | B,2 C2 [DF]4 |[M:2/4] x4 | x4 | %17
w: * * wing;~ *||||||||
[M:4/4] [DA]2 [DB]2 [CA]2 DE | [A,F]2 D2 [DE]2 D-[DG] |[M:6/4] D2 C2 D2- D6 |] %20
w: * dle~ * * *|* ly~ * * *|* * wing.~ *|
V:3
 F,4 A,2 D,2 | E,4 G,2 E,2 | F,8 | A,4 D,2 E,2 | F,2 A,2 A,2 ^G,2 |[M:2/4] A,4 | F,4 | %7
[M:4/4] G,2 E,2 G,2 A,2 | G,2 A,2 B,2 B,2 |[M:6/4] A,3 G, F,2- F,6 |[M:4/4] B,4 A,2 B,2 | %11
 D2 C2 B,4 | C8 | G,2[K:bass] A,2 B,2 F,2 | G,4 A,2 B,2 |[M:2/4] C4 | A,4 | %17
[M:4/4] A,2 G,2 E,2 B,2 | A,2 A,2 B,2 G,2 |[M:6/4] A,3 G, F,2- F,6 |] %20
V:4
 D,4 C,2 z2 | A,,4 G,,4 | D,8 | D,4 z2 C,2 | B,,2 C,2 E,4 |[M:2/4] A,,4 | D,4 | %7
[M:4/4] G,,2 A,,2 B,,2 D,2 | z2 F,2 G,2 E,2 |[M:6/4] A,,4 D,2- D,6 |[M:4/4] z4 F,2 G,2 | %11
 D,2 F,2 ^G,4 | A,8 | E,2 F,2 G,2 D,2 | E,4 F,2 G,2 |[M:2/4] A,4 | A,,2 z2 | %17
[M:4/4] F,,2 G,,2 A,,2 B,,C, | D,2 F,2 G,2 E,2 |[M:6/4] A,,4 D,2- D,6 |] %20
V:5
 x8 | x8 | x8 | x8 | x8 |[M:2/4] x4 | x4 |[M:4/4] x8 | x8 |[M:6/4] x12 |[M:4/4] x8 | x8 | x8 | %13
 x2[K:bass] x6 | x8 |[M:2/4] x4 | z2 G,,2 |[M:4/4] x8 | x8 |[M:6/4] x12 |] %20

